Sources/FrostedUI/Resources/Icons.xcassets/gamepadFilled16.imageset/gamepad-filled-16.svg

<svg width="16" height="16" viewBox="0 0 16 16" fill="none" xmlns="http://www.w3.org/2000/svg" data-fui-icon="true">
  <path
    d="M10.8286 2C13.2945 2.00019 15.3504 3.88777 15.561 6.34473L15.9614 11.0146C16.099 12.6202 14.8326 13.9999 13.2212 14H13.1646C12.5717 14 11.9941 13.8087 11.519 13.4541L10.0835 12.3818C9.86774 12.2209 9.60558 12.1339 9.33643 12.1338H6.66455C6.39517 12.1338 6.13241 12.2207 5.9165 12.3818L4.48096 13.4541C4.00603 13.8085 3.42903 13.9999 2.83643 14H2.77881C1.16739 14 -0.0990512 12.6202 0.0385742 11.0146L0.438965 6.34473C0.649589 3.88764 2.70627 2 5.17236 2H10.8286ZM5.49951 5C5.0856 5.00026 4.74964 5.33606 4.74951 5.75V6.5H3.99951C3.5856 6.50026 3.24964 6.83606 3.24951 7.25C3.24964 7.66394 3.5856 7.99974 3.99951 8H4.74951V8.75C4.74964 9.16394 5.0856 9.49974 5.49951 9.5C5.91364 9.5 6.24938 9.1641 6.24951 8.75V8H6.99951C7.41364 8 7.74938 7.6641 7.74951 7.25C7.74938 6.8359 7.41364 6.5 6.99951 6.5H6.24951V5.75C6.24938 5.3359 5.91364 5 5.49951 5ZM9.74951 7.25C9.19753 7.25026 8.74964 7.69799 8.74951 8.25C8.74964 8.80201 9.19753 9.24974 9.74951 9.25C10.3017 9.25 10.7494 8.80217 10.7495 8.25C10.7494 7.69783 10.3017 7.25 9.74951 7.25ZM11.7495 5.25C11.1975 5.25026 10.7496 5.69799 10.7495 6.25C10.7496 6.80201 11.1975 7.24974 11.7495 7.25C12.3017 7.25 12.7494 6.80217 12.7495 6.25C12.7494 5.69783 12.3017 5.25 11.7495 5.25Z"
    fill="currentColor"
  />
</svg>

<svg xmlns="http://www.w3.org/2000/svg" width="16" height="16" fill="none" data-fui-icon="true" viewBox="0 0 16 16"><path fill="currentColor" d="M10.829 2a4.75 4.75 0 0 1 4.732 4.345l.4 4.67A2.75 2.75 0 0 1 13.221 14h-.056c-.593 0-1.17-.191-1.646-.546l-1.435-1.072a1.25 1.25 0 0 0-.748-.248H6.665c-.27 0-.533.087-.748.248L4.48 13.454A2.75 2.75 0 0 1 2.836 14H2.78a2.75 2.75 0 0 1-2.74-2.985l.4-4.67A4.75 4.75 0 0 1 5.172 2zm-5.33 3a.75.75 0 0 0-.75.75v.75H4A.75.75 0 0 0 4 8h.75v.75a.75.75 0 0 0 1.5 0V8H7a.75.75 0 0 0 0-1.5h-.75v-.75A.75.75 0 0 0 5.5 5m4.25 2.25a1 1 0 1 0 .002 2.001A1 1 0 0 0 9.75 7.25m2-2a1 1 0 1 0 .002 2.001 1 1 0 0 0-.002-2.001"/></svg>
